icons/solid/square-3-stack-3d.svg

<svg width="24" height="24" viewBox="0 0 24 24" fill="none" xmlns="http://www.w3.org/2000/svg">
<path d="M11.6444 1.58965C11.8664 1.47012 12.1336 1.47012 12.3556 1.58965L22.1056 6.83965C22.3485 6.97046 22.5 7.22409 22.5 7.5C22.5 7.77591 22.3485 8.02954 22.1056 8.16035L12.3556 13.4104C12.1336 13.5299 11.8664 13.5299 11.6444 13.4104L1.89443 8.16035C1.65149 8.02954 1.5 7.77591 1.5 7.5C1.5 7.22409 1.65149 6.97046 1.89443 6.83965L11.6444 1.58965Z" fill="#0F172A"/>
<path d="M3.26468 10.6018L10.9333 14.731C11.5992 15.0896 12.4008 15.0896 13.0667 14.7311L20.7353 10.6018L22.1056 11.3396C22.3485 11.4704 22.5 11.7241 22.5 12C22.5 12.2759 22.3485 12.5295 22.1056 12.6603L12.3556 17.9103C12.1336 18.0299 11.8664 18.0299 11.6444 17.9103L1.89443 12.6603C1.65149 12.5295 1.5 12.2759 1.5 12C1.5 11.7241 1.65149 11.4704 1.89443 11.3396L3.26468 10.6018Z" fill="#0F172A"/>
<path d="M10.9333 19.231L3.26468 15.1018L1.89443 15.8396C1.65149 15.9704 1.5 16.2241 1.5 16.5C1.5 16.7759 1.65149 17.0295 1.89443 17.1603L11.6444 22.4103C11.8664 22.5299 12.1336 22.5299 12.3556 22.4103L22.1056 17.1603C22.3485 17.0295 22.5 16.7759 22.5 16.5C22.5 16.2241 22.3485 15.9704 22.1056 15.8396L20.7353 15.1018L13.0667 19.2311C12.4008 19.5896 11.5992 19.5896 10.9333 19.231Z" fill="#0F172A"/>
</svg>

<svg xmlns="http://www.w3.org/2000/svg" viewBox="0 0 24 24" fill="currentColor" aria-hidden="true" data-slot="icon">
  <path d="M11.644 1.59a.75.75 0 0 1 .712 0l9.75 5.25a.75.75 0 0 1 0 1.32l-9.75 5.25a.75.75 0 0 1-.712 0l-9.75-5.25a.75.75 0 0 1 0-1.32l9.75-5.25Z"/>
  <path d="m3.265 10.602 7.668 4.129a2.25 2.25 0 0 0 2.134 0l7.668-4.13 1.37.739a.75.75 0 0 1 0 1.32l-9.75 5.25a.75.75 0 0 1-.71 0l-9.75-5.25a.75.75 0 0 1 0-1.32l1.37-.738Z"/>
  <path d="m10.933 19.231-7.668-4.13-1.37.739a.75.75 0 0 0 0 1.32l9.75 5.25c.221.12.489.12.71 0l9.75-5.25a.75.75 0 0 0 0-1.32l-1.37-.738-7.668 4.13a2.25 2.25 0 0 1-2.134-.001Z"/>
</svg>
